X: 591
T: My Little Bag That Was Stolen.
R:reel
N:"Briskly." "Collected from F. O'Neill."
B:O'Neill's 591
Z:Transcribed by John B. Walsh (walsh@math.ubc.ca)
M:C
L:1/8
%Q:80
K:G
DGGA B2 AG|B2 Bd cA A2|DGGA B2 AG|GBAG FDDC|
DGGA B2 AG|B3d cA A2|AGGA B2 ((3AGE)|GBAG FD D2 Hx||
dddB c2 cA|B2 Bd cA A2|defd c2 AF|GBAG FD D2|
dddB c2 cA|B3 d cA A2|defd c2 ((3AGF)|GBAG FDDC||


